X:79
T:Face the Table
C:Ed Yother
C:http://edyother.com
M:2/4
R:Polka
L:1/8
K:D
DD/E/ FA | BA Bd | DD/E/ FB | AF ED |
DD/E/ FA | BA Bd | dd/d/ cc/c/ | BA FE :|
|: dd/d/ df | ed ef | dd/d/ df | ed BA |
dd/d/ df | ed ef |[1 gg/g/ ff/f/ | ed BA :|[2 gg/g/ aa/a/ | fe dB |]

